src/objects/phone/1F4DE.svg

<?xml version="1.0" encoding="UTF-8"?>
<svg id="emoji" xmlns="http://www.w3.org/2000/svg" viewBox="0 0 72 72">
  <g id="grid">
    <path d="m68,4v64H4V4h64M72,0H0v72h72V0Z" fill="#b3b3b3"/>
    <path d="m12.923,10.9583h46.1539c1.0621,0,1.9231.861,1.9231,1.9231h0v46.1538c0,1.0621-.861,1.9231-1.9231,1.9231H12.9231c-1.0621,0-1.9231-.861-1.9231-1.9231h0V12.8813c0-1.062.861-1.923,1.923-1.923h0Z" fill="none" stroke="#00a5ff" stroke-miterlimit="10" stroke-width=".1"/>
    <rect x="16" y="4" width="40" height="64" rx="2.2537" ry="2.2537" fill="none" stroke="#00a5ff" stroke-miterlimit="10" stroke-width=".1"/>
    <rect x="4" y="16" width="64" height="40" rx="2.2537" ry="2.2537" fill="none" stroke="#00a5ff" stroke-miterlimit="10" stroke-width=".1"/>
    <circle cx="36" cy="36" r="29" fill="none" stroke="#00a5ff" stroke-miterlimit="10" stroke-width=".1"/>
  </g>
  <g id="color">
    <path d="m13.6707,21.3098c1.4142,9.8995,26.8701,35.3553,36.7696,36.7696,0,0,5.6569,0,8.4853-5.6569l-9.1924-9.1924-3.5355,3.5355c-7.0711-1.4142-19.799-14.1421-21.2132-21.2132l3.5355-3.5355-9.1924-9.1924c-5.6569,2.8284-5.6569,8.4853-5.6569,8.4853Z" fill="#d0cfce"/>
    <path d="m25,26l-9.0844-8.9594,2.0831-2.729c.364-.4769,1.06-.5357,1.4989-.1267l8.2523,7.6901-2.75,4.125Z" fill="#9b9b9a"/>
    <polygon points="54.8934 55.9074 46.4524 47.5733 49.68 44.3223 58.1993 52.8075 54.8934 55.9074" fill="#9b9b9a"/>
  </g>
  <g id="line">
    <path d="m13.6707,21.3098c1.4142,9.8995,26.8701,35.3553,36.7696,36.7696,0,0,5.6569,0,8.4853-5.6569l-9.1924-9.1924-3.5355,3.5355c-7.0711-1.4142-19.799-14.1421-21.2132-21.2132l3.5355-3.5355-9.1924-9.1924c-5.6569,2.8284-5.6569,8.4853-5.6569,8.4853Z" fill="none" stroke="#000" stroke-linecap="round" stroke-linejoin="round" stroke-width="2"/>
    <path d="m13.6707,21.3098c1.4142,9.8995,26.8701,35.3553,36.7696,36.7696,0,0,5.6569,0,8.4853-5.6569l-9.1924-9.1924-3.5355,3.5355c-7.0711-1.4142-19.799-14.1421-21.2132-21.2132l3.5355-3.5355-9.1924-9.1924c-5.6569,2.8284-5.6569,8.4853-5.6569,8.4853Z" fill="none" stroke="#000" stroke-linecap="round" stroke-linejoin="round" stroke-width="2"/>
  </g>
</svg>

<svg id="emoji" viewBox="0 0 72 72" xmlns="http://www.w3.org/2000/svg">
  <g id="grid">
    <path fill="#b3b3b3" d="M68,4V68H4V4H68m4-4H0V72H72V0Z"/>
    <path fill="none" stroke="#00a5ff" stroke-miterlimit="10" stroke-width="0.1" d="M12.923,10.9583H59.0769A1.9231,1.9231,0,0,1,61,12.8814V59.0352a1.9231,1.9231,0,0,1-1.9231,1.9231H12.9231A1.9231,1.9231,0,0,1,11,59.0352V12.8813A1.923,1.923,0,0,1,12.923,10.9583Z"/>
    <rect x="16" y="4" rx="2.2537" width="40" height="64" fill="none" stroke="#00a5ff" stroke-miterlimit="10" stroke-width="0.1"/>
    <rect x="16" y="4" rx="2.2537" width="40" height="64" transform="translate(72) rotate(90)" fill="none" stroke="#00a5ff" stroke-miterlimit="10" stroke-width="0.1"/>
    <circle cx="36" cy="36" r="29" fill="none" stroke="#00a5ff" stroke-miterlimit="10" stroke-width="0.1"/>
  </g>
  <g id="color">
    <path fill="#d0cfce" stroke="none" stroke-linecap="round" stroke-linejoin="round" stroke-miterlimit="10" stroke-width="2" d="M13.6707,21.3098c1.4142,9.8995,26.8701,35.3553,36.7696,36.7696c0,0,5.6569,0,8.4853-5.6569l-9.1924-9.1924l-3.5355,3.5355 c-7.0711-1.4142-19.799-14.1421-21.2132-21.2132l3.5355-3.5355l-9.1924-9.1924C13.6707,15.6529,13.6707,21.3098,13.6707,21.3098z"/>
    <polygon fill="#9b9b9a" stroke="none" points="25,26 15.125,16.25 19,13 27.75,21.875"/>
    <polygon fill="#9b9b9a" stroke="none" points="56,57 46.125,47.25 50,44 58.75,52.875"/>
  </g>
  <g id="hair"/>
  <g id="skin"/>
  <g id="skin-shadow"/>
  <g id="line">
    <path fill="none" stroke="#000000" stroke-linecap="round" stroke-linejoin="round" stroke-miterlimit="10" stroke-width="2" d="M13.6707,21.3098c1.4142,9.8995,26.8701,35.3553,36.7696,36.7696c0,0,5.6569,0,8.4853-5.6569l-9.1924-9.1924l-3.5355,3.5355 c-7.0711-1.4142-19.799-14.1421-21.2132-21.2132l3.5355-3.5355l-9.1924-9.1924C13.6707,15.6529,13.6707,21.3098,13.6707,21.3098z"/>
    <path fill="none" stroke="#000000" stroke-linecap="round" stroke-linejoin="round" stroke-miterlimit="10" stroke-width="2" d="M13.6707,21.3098c1.4142,9.8995,26.8701,35.3553,36.7696,36.7696c0,0,5.6569,0,8.4853-5.6569l-9.1924-9.1924l-3.5355,3.5355 c-7.0711-1.4142-19.799-14.1421-21.2132-21.2132l3.5355-3.5355l-9.1924-9.1924C13.6707,15.6529,13.6707,21.3098,13.6707,21.3098z"/>
  </g>
</svg>
